X: 36
T: No_130_Catfish_Dance_Song_(d).krn
N: Derived from No_130_Catfish_Dance_Song_(d).krn
%%abc-version 2.0
%%abcx-abcm2ps-target-version 5.9.1 (29 Sep 2008)
%%abc-creator hum2abc beta
%%abcx-conversion-date 2019/03/15 08:38:45
%%humdrum-veritas 2983337171
%%humdrum-veritas-data 3930924088
%%linebreak <none>
%%barnumbers 0
L: 1/8
M: 2/4
K: C clef=bass
[K:clef=bass][M:2/4]C3/C/C2 [I:setbarnb 2]| 
CC CG, | 
G,G,3//G,// G,3//F,//E,/ z/ | 
E,A, G,E, | 
G,E,3//E,// E, z | 
C,C,/C,/C,2 | 
E,/C,/F, F, z | 
F,A, G,E, | 
G,E,3//E,// E, z | 
C,C,C,2 :|]  



